Origami/32x32/apps/electron.svg

<svg width="32" height="32" version="1.1" viewBox="0 0 32 32" xmlns="http://www.w3.org/2000/svg">
 <path d="M 16,3 A 14,14 0 0 0 2,17 14,14 0 0 0 16,31 14,14 0 0 0 30,17 14,14 0 0 0 16,3 Z" style="opacity:.2"/>
 <path d="M 16,2 A 14,14 0 0 0 2,16 14,14 0 0 0 16,30 14,14 0 0 0 30,16 14,14 0 0 0 16,2 Z" style="fill:#74bfcc"/>
 <path d="m23.51 15.58s1.885831-2.521804 0.722-4.951c-1.163831-2.4291962-6.81244-0.6925204-11.154976 2.340449-3.126228 2.183459-4.6319614 6.032565-4.577024 8.530551" style="fill:none;stroke-linecap:round;stroke:#3f3f3f"/>
 <path d="m12.5 22.5s0.714548 2.909188 3.885478 3.035 4.514883-5.242678 4.059522-10.519909c-0.327816-3.799123-1.754213-7.3136754-3.945-8.515091" style="fill:none;stroke-linecap:round;stroke:#3f3f3f"/>
 <path d="m13.5 9.6s-4.4087657-2.6622871-5.697 0.415262c-1.2882343 3.077549 2.982488 8.706242 8.094646 10.092738 3.568373 0.967798 7.571687-0.187954 8.602354-0.608" style="fill:none;stroke-linecap:round;stroke:#3f3f3f"/>
 <ellipse cx="16.5" cy="15.5" rx="1.063" ry="1.063" style="fill:#3f3f3f;stroke-width:.87449825;stroke:#3f3f3f"/>
 <path d="M 16 2 A 14 14 0 0 0 2 16 A 14 14 0 0 0 2.0214844 16.414062 A 14 14 0 0 1 16 3 A 14 14 0 0 1 29.978516 16.585938 A 14 14 0 0 0 30 16 A 14 14 0 0 0 16 2 z" style="fill:#ffffff;opacity:.2"/>
 <path d="M 16.429688 5.0019531 A 1.5 1.5 0 0 0 15.201172 5.75 A 1.5 1.5 0 0 0 15.75 7.7988281 A 1.5 1.5 0 0 0 17.798828 7.25 A 1.5 1.5 0 0 0 17.25 5.2011719 A 1.5 1.5 0 0 0 16.429688 5.0019531 z M 24.464844 18 A 1.5 1.5 0 0 0 23.75 18.201172 A 1.5 1.5 0 0 0 23.201172 20.25 A 1.5 1.5 0 0 0 25.25 20.798828 A 1.5 1.5 0 0 0 25.798828 18.75 A 1.5 1.5 0 0 0 24.464844 18 z M 8.5 20 A 1.5 1.5 0 0 0 7 21.5 A 1.5 1.5 0 0 0 8.5 23 A 1.5 1.5 0 0 0 10 21.5 A 1.5 1.5 0 0 0 8.5 20 z" style="fill:#3f3f3f"/>
 <path d="m16.5 6a0.5 0.5 0 0 0 -0.5 0.5 0.5 0.5 0 0 0 0.5 0.5 0.5 0.5 0 0 0 0.5 -0.5 0.5 0.5 0 0 0 -0.5 -0.5zm8 13a0.5 0.5 0 0 0 -0.5 0.5 0.5 0.5 0 0 0 0.5 0.5 0.5 0.5 0 0 0 0.5 -0.5 0.5 0.5 0 0 0 -0.5 -0.5zm-16 2a0.5 0.5 0 0 0 -0.5 0.5 0.5 0.5 0 0 0 0.5 0.5 0.5 0.5 0 0 0 0.5 -0.5 0.5 0.5 0 0 0 -0.5 -0.5z" style="fill:#74bfcc"/>
</svg>

<svg xmlns="http://www.w3.org/2000/svg" width="32" height="32" version="1.1" viewBox="0 0 32 32">
 <path style="opacity:0.2" d="M 16,3 A 14,14 0 0 0 2,17 14,14 0 0 0 16,31 14,14 0 0 0 30,17 14,14 0 0 0 16,3 Z"/>
 <path style="fill:#74bfcc" d="M 16,2 A 14,14 0 0 0 2,16 14,14 0 0 0 16,30 14,14 0 0 0 30,16 14,14 0 0 0 16,2 Z"/>
 <path style="fill:none;stroke:#3f3f3f;stroke-linecap:round" d="m 23.51,15.58 c 0,0 1.885831,-2.521804 0.722,-4.951 C 23.068169,8.1998038 17.41956,9.9364796 13.077024,12.969449 9.950796,15.152908 8.4450626,19.002014 8.5,21.5"/>
 <path style="fill:none;stroke:#3f3f3f;stroke-linecap:round" d="m 12.5,22.5 c 0,0 0.714548,2.909188 3.885478,3.035 3.17093,0.125812 4.514883,-5.242678 4.059522,-10.519909 C 20.117184,11.215968 18.690787,7.7014156 16.5,6.5"/>
 <path style="fill:none;stroke:#3f3f3f;stroke-linecap:round" d="m 13.5,9.6 c 0,0 -4.4087657,-2.6622871 -5.697,0.415262 C 6.5147657,13.092811 10.785488,18.721504 15.897646,20.108 19.466019,21.075798 23.469333,19.920046 24.5,19.5"/>
 <ellipse style="fill:#3f3f3f;stroke:#3f3f3f;stroke-width:0.87449825" cx="16.5" cy="15.5" rx="1.063" ry="1.063"/>
 <path style="fill:#ffffff;opacity:0.2" d="M 16 2 A 14 14 0 0 0 2 16 A 14 14 0 0 0 2.0214844 16.414062 A 14 14 0 0 1 16 3 A 14 14 0 0 1 29.978516 16.585938 A 14 14 0 0 0 30 16 A 14 14 0 0 0 16 2 z"/>
 <path style="fill:#3f3f3f" d="M 16.429688 5.0019531 A 1.5 1.5 0 0 0 15.201172 5.75 A 1.5 1.5 0 0 0 15.75 7.7988281 A 1.5 1.5 0 0 0 17.798828 7.25 A 1.5 1.5 0 0 0 17.25 5.2011719 A 1.5 1.5 0 0 0 16.429688 5.0019531 z M 24.464844 18 A 1.5 1.5 0 0 0 23.75 18.201172 A 1.5 1.5 0 0 0 23.201172 20.25 A 1.5 1.5 0 0 0 25.25 20.798828 A 1.5 1.5 0 0 0 25.798828 18.75 A 1.5 1.5 0 0 0 24.464844 18 z M 8.5 20 A 1.5 1.5 0 0 0 7 21.5 A 1.5 1.5 0 0 0 8.5 23 A 1.5 1.5 0 0 0 10 21.5 A 1.5 1.5 0 0 0 8.5 20 z"/>
 <path style="fill:#74bfcc" d="M 16.5 6 A 0.5 0.5 0 0 0 16 6.5 A 0.5 0.5 0 0 0 16.5 7 A 0.5 0.5 0 0 0 17 6.5 A 0.5 0.5 0 0 0 16.5 6 z M 24.5 19 A 0.5 0.5 0 0 0 24 19.5 A 0.5 0.5 0 0 0 24.5 20 A 0.5 0.5 0 0 0 25 19.5 A 0.5 0.5 0 0 0 24.5 19 z M 8.5 21 A 0.5 0.5 0 0 0 8 21.5 A 0.5 0.5 0 0 0 8.5 22 A 0.5 0.5 0 0 0 9 21.5 A 0.5 0.5 0 0 0 8.5 21 z"/>
</svg>
